X: 6
T: Chanukah,  oh Chanukah
M: 4/4
K: G
L: 1/8
V: 1 name="Vln I" snm="" clef=treble
%%MIDI channel 1
%%MIDI program 40
!f!vBBBB !4!eBBB | B2 AG (.A2 .G2) | B2 BB !4!e2 BB | B2 AG (.A2 .G2) |
GABA G2 G2 | A2 GF G4 | vGABA G2 G2 | A2 GF (.E2 .E2) |
vB z vB4 E2 | vB z vB4 E2 | B2 BB c2 BA | B6 z2 |: vB2 BB c2 BA |
B2 BB c2 BA |1 G2 GG A2 GA | B6 z2 :|2 G2 GG A2 GF | (uE4 E) z z2 |]
V: 2 name="Vln II" snm="" clef=treble
%%MIDI channel 2
%%MIDI program 40
!f!GGGG GGGG | G2 FE (.F2 .E2) | G2 GG G2 GG | G2 FE (.F2 .E2) |
EFGF E2 E2 | B,2 B,B, E4 | uEFGF E2 E2 | B,2 B,B, (.G,2 .E2) |
vB z vB4 E2 | vB z vB4 E2 | B2 BB c2 BA | B6 z2 |: vG2 GG A2 GF |
G2 GG A2 GF |1 E2 EE F2 EF | F6 z2 :|2 E2 EE B,2 B,B, | (uE4 E) z z2 |]

% Same as above,  except both parts switched to viola & xposed up an octave
% in the second part

